X:1
T:[ID 1-8]
T:[ID 1-8]
T:Bezeichnung standardisiert: Menuett Men\"uet
T:Urheber unbekannt Datum in der hier transkribierten schriftlichen Quelle: vermutlich vor 1767
C:Urheber unbekannt
C:Datum in der hier transkribierten schriftlichen Quelle: vermutlich vor 1767
L:1/8
M:3/4
K:D
V:1 treble 
V:1
 D2 d2 c2 | df A2 B2 | GB A2 G2 | F2 EF D2 | A,2 DA,EA, | F2 EF D2 | A,2 DA,EA, | F2 EF D2 | %8
 A,2 d2 c2 | d4 :: f2 ffff | f2 edcB | e2 dcBA | ^G2 FG E2 | E^GBdcB | ceacBA | E^GBdcB | ceacBA | %18
 E2 a2 ^g2 | a6 | e4 f2 | g4 a2 | f2 gfed | c2 Bc A2 | A,CEGFE | FAdFED | A,CEGFE | FAdFED | %28
 A,2 d2 c2 | d6 :| %30

